src/assets/billing/visa.svg

<svg width="34" height="17" viewBox="0 0 34 17" fill="none" xmlns="http://www.w3.org/2000/svg">
<rect width="34" height="17" fill="#2566AF"/>
<path d="M14.5742 12.8078H12.34L13.7364 4.34567H15.9708L14.5742 12.8078ZM10.4605 4.34567L8.33054 10.166L8.0785 8.91267L8.07873 8.91312L7.32696 5.10759C7.32696 5.10759 7.23606 4.34567 6.26715 4.34567H2.74591L2.70459 4.48895C2.70459 4.48895 3.78139 4.70988 5.0416 5.45618L6.98264 12.8081H9.31047L12.865 4.34567H10.4605ZM28.0334 12.8078H30.0849L28.2962 4.34544H26.5003C25.6709 4.34544 25.4689 4.97607 25.4689 4.97607L22.1368 12.8078H24.4658L24.9316 11.5509H27.7717L28.0334 12.8078ZM25.575 9.81448L26.7489 6.64773L27.4093 9.81448H25.575ZM22.3115 6.38062L22.6304 4.56342C22.6304 4.56342 21.6465 4.19446 20.6209 4.19446C19.5122 4.19446 16.8793 4.6723 16.8793 6.99587C16.8793 9.18203 19.9695 9.2092 19.9695 10.3575C19.9695 11.5058 17.1977 11.3001 16.2829 10.5759L15.9508 12.476C15.9508 12.476 16.9484 12.9538 18.4726 12.9538C19.9972 12.9538 22.2973 12.1754 22.2973 10.0567C22.2973 7.85648 19.1794 7.65163 19.1794 6.69504C19.1796 5.73822 21.3555 5.86113 22.3115 6.38062Z" fill="white"/>
</svg>

<svg xmlns="http://www.w3.org/2000/svg" width="34" height="17" fill="none">
    <path fill="#2566AF" d="M0 0h34v17H0z" />
    <path fill="#fff"
        d="M14.57 12.8h-2.23l1.4-8.45h2.23l-1.4 8.46Zm-4.11-8.45-2.13 5.82-.25-1.26-.75-3.8s-.1-.76-1.06-.76H2.75l-.05.14s1.08.22 2.34.97l1.94 7.35h2.33l3.55-8.46h-2.4Zm17.57 8.46h2.05L28.3 4.35h-1.8c-.83 0-1.03.63-1.03.63l-3.33 7.83h2.33l.46-1.26h2.84l.26 1.26Zm-2.46-3 1.18-3.16.66 3.16h-1.84Zm-3.26-3.43.32-1.82s-.98-.37-2-.37c-1.12 0-3.75.48-3.75 2.8 0 2.2 3.09 2.22 3.09 3.37s-2.77.94-3.69.22l-.33 1.9s1 .47 2.52.47c1.53 0 3.83-.77 3.83-2.9 0-2.2-3.12-2.4-3.12-3.35 0-.96 2.18-.84 3.13-.32Z" />
</svg>
